X:889
T:Tullymet Hall
R:Reel
C:John Gow
B:The Athole Collection
M:C|
L:1/8
K:A Minor
e|cAeA e2dg|BGgG Bdd>e|cAec dgde|cdBd cAA:|
^g|a^gae cAec|^fdgd BGG^g|a^gae cAec|^fd^ge aAAg|
a^gae cAec|^fdgd BGdB|cA^GB AcBd|cedf eAA||

